packages/react-icons/icons/switch-application.svg

<svg width="24" height="25" viewBox="0 0 24 25" xmlns="http://www.w3.org/2000/svg"><path fill-rule="evenodd" clip-rule="evenodd" d="M8.57038 4.53906C8.07332 4.53906 7.67038 4.94201 7.67038 5.43906C7.67038 5.93612 8.07332 6.33906 8.57038 6.33906C11.9729 6.33906 14.7311 9.09734 14.7311 12.4999C14.7311 15.9024 11.9729 18.6606 8.57038 18.6606C8.07332 18.6606 7.67038 19.0636 7.67038 19.5606C7.67038 20.0577 8.07332 20.4606 8.57038 20.4606C12.6628 20.4606 16.0339 17.3726 16.4808 13.3996H18.8273L17.6137 14.6132C17.2622 14.9647 17.2622 15.5345 17.6137 15.886C17.9652 16.2375 18.535 16.2375 18.8865 15.886L21.6365 13.136C21.8053 12.9672 21.9001 12.7383 21.9001 12.4996C21.9001 12.2609 21.8053 12.032 21.6365 11.8632L18.8865 9.11321C18.535 8.76174 17.9652 8.76174 17.6137 9.11322C17.2622 9.46469 17.2622 10.0345 17.6137 10.386L18.8273 11.5996L16.4808 11.5996C16.0336 7.62681 12.6626 4.53906 8.57038 4.53906ZM5.07284 9.53711C6.40612 9.53711 7.5344 10.4149 7.91136 11.624H11.0742C11.5713 11.624 11.9742 12.027 11.9742 12.524C11.9742 13.0211 11.5713 13.424 11.0742 13.424H7.90237C7.51674 14.6186 6.39569 15.4826 5.07284 15.4826C3.43104 15.4826 2.1001 14.1517 2.1001 12.5099C2.1001 10.8681 3.43104 9.53711 5.07284 9.53711ZM5.07284 11.3371C4.42515 11.3371 3.90009 11.8622 3.90009 12.5099C3.90009 13.1576 4.42515 13.6826 5.07284 13.6826C5.72053 13.6826 6.24559 13.1576 6.24559 12.5099C6.24559 11.8622 5.72053 11.3371 5.07284 11.3371Z"/></svg>

<svg xmlns="http://www.w3.org/2000/svg" width="24" height="25"><path fill-rule="evenodd" d="M8.57 4.54a.9.9 0 0 0 0 1.8 6.16 6.16 0 0 1 0 12.32.9.9 0 0 0 0 1.8 7.962 7.962 0 0 0 7.91-7.06h2.347l-1.213 1.213a.9.9 0 1 0 1.273 1.273l2.75-2.75a.9.9 0 0 0 0-1.273l-2.75-2.75a.9.9 0 0 0-1.273 1.273l1.213 1.214h-2.346a7.962 7.962 0 0 0-7.91-7.06ZM5.073 9.536c1.333 0 2.461.878 2.838 2.087h3.163a.9.9 0 0 1 0 1.8H7.902a2.974 2.974 0 1 1-2.83-3.887Zm0 1.8a1.173 1.173 0 1 0 0 2.346 1.173 1.173 0 0 0 0-2.346Z" clip-rule="evenodd"/></svg>
